X: 141454
T: Nellie Mahoney's
T: Slide Neil\'i N\'i Mhath\'una
S: B.Breathnach: "Ceol Rince na hEireann" II/70 
Z: B.Black
L: 1/8
M: 6/8
R: slide
K: G
G2A|: B2A ABd|e2d d2B|AGA BdA|G2D D2A|
B2A ABd|e2d d2B|AGA B2A|1 G2G G2A :|2 G3 G2||
D|G2g gfg|age dBd|eaa aba|g3 b2g|
G2g gfg|age d2B|eaa aba|g3 g2e|
G2g gfg|age dBd|eaa aba|g3 B2A|
G2g gfg|age d2B|eaa aba|g3 g2e||
